X:1
T: Lady Augusta Gordon Lennox
C:Alexanger Walker
R:Strathspey
Q: 128
K:Gm
M:4/4
L:1/16
|:F2|G3G, D3C B,G,3 G,3g|f3c d3B AF3 F3A|G3G, D3C B,G,3 G,3F|B3F dcBA G6 F2|
G3G, D3C B,G,3 G,3g|f3c d3B AF3 F3A|G3G, D3C B,G,3 G,3F|B3F dcBA G6 g2|
dG3 d3c dG3 G3f|c3F c3B AF3 F3A|dG3 d3c dG3 G3f|A3F dcBA G4-G3g|
dG3 d3c dG3 G3f|cF3 c3B AF3 F3A|G3B A3c B3d c3f|d3g ^f3a g6:|
